site/src/img/icons/twilio.svg

<svg fill-rule="evenodd" stroke-linejoin="round" stroke-miterlimit="2" clip-rule="evenodd" viewBox="0 0 72 41">
	<path fill="#fff" fill-rule="nonzero" d="M65.14,0L6,0C2.708,0 0,2.708 0,6L0,23.84C0.001,25.43 0.635,26.956 1.76,28.08L12.28,38.6C13.404,39.725 14.93,40.359 16.52,40.36L54.62,40.36C56.21,40.359 57.736,39.725 58.86,38.6L69.38,28.08C70.505,26.956 71.139,25.43 71.14,23.84L71.14,6C71.14,2.708 68.432,0 65.14,0Z" />
	<path fill="#b5b7c1" fill-rule="nonzero" d="M56.08,32.05L58.01,32.05L59.38,30.69L57.45,30.69L56.08,32.05Z" />
	<path fill="#b5b7c1" fill-rule="nonzero" d="M51.47,34.78L53.4,34.78L54.76,33.41L52.83,33.41L51.47,34.78Z" />
	<path fill="#b5b7c1" fill-rule="nonzero" d="M62.49,25.23L43.24,25.23C43.511,25.663 43.745,26.118 43.94,26.59L57.26,26.59L55.89,28L44.38,28C44.482,28.451 44.549,28.909 44.58,29.37L51.12,29.37L49.76,30.73L44.58,30.73C44.55,31.188 44.483,31.643 44.38,32.09L50.31,32.09L49,33.42L44,33.42C43.81,33.893 43.579,34.348 43.31,34.78L49.57,34.78L50.94,33.42L52.3,32.05L54.21,32.05L55.57,30.69L56.93,29.33L60.37,29.33L61.68,28L63.05,26.63L64.41,25.27L62.49,25.23ZM53.58,30.69L51.69,30.69L53.05,29.33L54.94,29.33L53.58,30.69ZM59.75,28L57.81,28L59.19,26.63L61.12,26.63L59.75,28Z" />
	<path fill="#b5b7c1" fill-rule="nonzero" d="M11.81,30.69L13.18,32.05L15.11,32.05L13.74,30.69L11.81,30.69Z" />
	<path fill="#b5b7c1" fill-rule="nonzero" d="M16.43,33.41L17.79,34.78L19.73,34.78L18.36,33.41L16.43,33.41Z" />
	<path fill="#b5b7c1" fill-rule="nonzero" d="M22.24,33.42L20.88,32.05L26.81,32.05C26.707,31.603 26.64,31.148 26.61,30.69L21.43,30.69L20.07,29.33L26.61,29.33C26.641,28.869 26.708,28.411 26.81,27.96L15.31,27.96L13.93,26.59L27.25,26.59C27.445,26.118 27.679,25.663 27.95,25.23L6.78,25.23L8.14,26.59L9.51,28L10.88,29.37L14.32,29.37L17,32.05L19,32.05L20.36,33.42L21.73,34.78L27.99,34.78C27.721,34.348 27.49,33.893 27.3,33.42L22.24,33.42ZM11.44,28L10.07,26.63L12,26.63L13.38,28L11.44,28ZM17.61,30.73L16.25,29.37L18.14,29.37L19.5,30.73L17.61,30.73Z" />
	<path fill="#565b73" fill-rule="nonzero" d="M35.6,23.45C35.597,23.45 35.593,23.45 35.59,23.45C31.991,23.45 29.03,26.411 29.03,30.01C29.03,33.609 31.991,36.57 35.59,36.57C39.189,36.57 42.15,33.609 42.15,30.01C42.15,30.007 42.15,30.003 42.15,30C42.15,26.407 39.193,23.45 35.6,23.45ZM35.6,34.81C35.597,34.81 35.593,34.81 35.59,34.81C32.951,34.81 30.78,32.639 30.78,30C30.78,27.361 32.951,25.19 35.59,25.19C38.229,25.19 40.4,27.361 40.4,30C40.4,30.007 40.4,30.013 40.4,30.02C40.4,32.648 38.238,34.81 35.61,34.81C35.607,34.81 35.603,34.81 35.6,34.81ZM38.6,28.39C38.584,29.124 37.975,29.72 37.24,29.72C36.494,29.72 35.88,29.106 35.88,28.36C35.88,27.625 36.476,27.016 37.21,27C37.21,27 37.21,27 37.21,27C37.956,27 38.57,27.614 38.57,28.36C38.57,28.37 38.57,28.38 38.57,28.39L38.6,28.39ZM38.6,31.62C38.6,31.623 38.6,31.627 38.6,31.63C38.6,32.376 37.986,32.99 37.24,32.99C36.494,32.99 35.88,32.376 35.88,31.63C35.88,30.884 36.494,30.27 37.24,30.27C37.969,30.291 38.56,30.891 38.57,31.62L38.6,31.62ZM35.36,31.62C35.36,31.623 35.36,31.627 35.36,31.63C35.36,32.376 34.746,32.99 34,32.99C33.254,32.99 32.64,32.376 32.64,31.63C32.64,30.884 33.254,30.27 34,30.27C34.729,30.291 35.32,30.891 35.33,31.62L35.36,31.62ZM35.36,28.39C35.344,29.125 34.735,29.72 34,29.72C33.254,29.72 32.64,29.106 32.64,28.36C32.64,27.614 33.254,27 34,27C34.735,27.016 35.33,27.625 35.33,28.36C35.33,28.37 35.33,28.38 35.33,28.39L35.36,28.39Z" />
	<path fill="#565b73" fill-rule="nonzero" d="M63.59,17.59C63.16,16.28 62.54,15.04 61.75,13.91L59.75,13.91L59.75,14L60.36,17.55L60.36,17.63L59.75,21.48L59.75,21.59L61.75,21.59L61.75,16.46C62.852,17.96 63.492,19.751 63.59,21.61L65.59,21.61L65.59,21.5L65,17.65L65,17.57L65.59,14L65.59,13.89L63.59,13.89L63.59,17.59Z" />
	<path fill="#565b73" fill-rule="nonzero" d="M51.73,14L52.35,17.55L52.35,17.63L51.73,21.48L51.73,21.59L57.58,21.59L57.58,21.5L57,17.65L57,17.57L57.58,14L57.58,13.89L51.73,13.89L51.73,14ZM53.81,15.28L55.51,15.28L55.51,20.2L53.81,20.2L53.81,15.28Z" />
	<path fill="#565b73" fill-rule="nonzero" d="M46.91,14.02L47.53,17.57L47.53,17.65L46.91,21.5L46.91,21.61L49.53,21.61L49.53,21.5L48.92,17.65L48.92,17.57L49.53,14.02L49.53,13.91L46.91,13.91L46.91,14.02Z" />
	<path fill="#565b73" fill-rule="nonzero" d="M43,13.91L39.45,13.91L39.45,14L40.06,17.55L40.06,17.63L39.45,21.48L39.45,21.59L42.06,21.59L41.58,18.29L43,18.29C43.003,18.29 43.007,18.29 43.01,18.29C44.206,18.29 45.19,17.306 45.19,16.11C45.19,16.103 45.19,16.097 45.19,16.09C45.191,16.059 45.192,16.028 45.192,15.998C45.192,14.851 44.249,13.908 43.102,13.908C43.068,13.908 43.034,13.908 43,13.91ZM42.38,17.08L42.24,17.08C42.194,17.088 42.147,17.091 42.1,17.091C41.628,17.091 41.24,16.703 41.24,16.231C41.24,16.228 41.24,16.224 41.24,16.22C41.236,16.188 41.234,16.156 41.234,16.124C41.234,15.663 41.614,15.284 42.074,15.284C42.13,15.284 42.185,15.289 42.24,15.3L42.38,15.3C42.413,15.296 42.447,15.294 42.48,15.294C42.974,15.294 43.38,15.701 43.38,16.194C43.38,16.203 43.38,16.211 43.38,16.22C43.38,16.224 43.38,16.228 43.38,16.231C43.38,16.703 42.992,17.091 42.52,17.091C42.473,17.091 42.426,17.088 42.38,17.08Z" />
	<path fill="#565b73" fill-rule="nonzero" d="M33.33,17C32.878,15.895 32.257,14.866 31.49,13.95L29.49,13.95L29.49,14L30.1,17.55L30.1,17.63L29.49,21.48L29.49,21.59L31.49,21.59L31.49,16.35C31.973,16.907 32.38,17.526 32.7,18.19L32.12,21.5L32.12,21.61L34.54,21.61L34.54,21.5L34,18.19C34.316,17.523 34.723,16.904 35.21,16.35L35.21,21.61L37.21,21.61L37.21,21.5L36.59,17.65L36.59,17.57L37.18,14L37.18,13.89L35.18,13.89C34.408,14.826 33.784,15.875 33.33,17Z" />
	<path fill="#565b73" fill-rule="nonzero" d="M21.61,13.91L21.61,14L22.22,17.55L22.22,17.63L21.61,21.48L21.61,21.59L23.5,21.59L23.71,19.06L25.15,19.06L25.35,21.59L27.25,21.59L27.25,21.5L26.63,17.65L26.63,17.57L27.25,14L27.25,13.89C26.33,13.96 25.37,14 24.43,14C23.49,14 22.54,14 21.61,13.91ZM25.15,16.74C25.15,17.5 24.84,17.74 24.43,17.74C24.02,17.74 23.71,17.49 23.71,16.74L23.71,15.29L25.15,15.29L25.15,16.74Z" />
	<path fill="#565b73" fill-rule="nonzero" d="M17.34,15.3L17.34,17.07L15.65,17.07L15.65,15.3L15.65,13.91L13.56,13.91L13.56,14.02L14.18,17.57L14.18,17.65L13.56,21.5L13.56,21.61L15.65,21.61L15.65,20.22L15.65,18.45L17.34,18.45L17.34,21.61L19.41,21.61L19.41,21.5L18.8,17.65L18.8,17.57L19.41,14.02L19.41,13.91L17.34,13.91L17.34,15.3Z" />
	<path fill="#565b73" fill-rule="nonzero" d="M5.55,13.99L6.16,17.55L6.16,17.64L5.55,21.51L5.55,21.61L11.41,21.61L11.41,21.51L10.98,18.81L9.33,18.81L9.33,20.22L7.64,20.22L7.64,15.28L9.33,15.28L9.33,16.69L10.95,16.69L11.41,13.99L11.41,13.89L5.55,13.89L5.55,13.99Z" />
	<path fill="#565b73" fill-rule="nonzero" d="M49.37,10.94L48.93,8.16L48.93,8.11L49.37,5.55L49.37,5.47L45.16,5.47L45.16,5.55L45.6,8.11L45.6,8.16L45.16,10.94L45.16,11L49.37,11L49.37,10.94ZM47.88,10L46.66,10L46.66,6.47L47.88,6.47L47.88,10Z" />
	<path fill="#565b73" fill-rule="nonzero" d="M44.07,10.95L43.63,8.16L43.63,8.11L44.07,5.55L44.07,5.47L42.19,5.47L42.19,5.55L42.63,8.11L42.63,8.16L42.19,10.95L42.19,11.02L44.07,11.02L44.07,10.95Z" />
	<path fill="#565b73" fill-rule="nonzero" d="M41.04,9.9L39.23,9.99L39.23,5.47L37.56,5.47L37.56,5.55L38.01,8.11L38.01,8.16L37.56,10.95L37.56,11.02L40.93,11.02L41.04,9.9Z" />
	<path fill="#565b73" fill-rule="nonzero" d="M34.44,5.55L34.88,8.11L34.88,8.16L34.44,10.95L34.44,11.02L36.33,11.02L36.33,10.95L35.88,8.16L35.88,8.11L36.33,5.55L36.33,5.47L34.44,5.47L34.44,5.55Z" />
	<path fill="#565b73" fill-rule="nonzero" d="M32.73,11L33.37,5.45L31.87,5.45L31.72,9.45C31.72,9.79 31.64,9.96 31.29,9.96C30.94,9.96 30.85,9.78 30.84,9.47L30.69,5.47L29.57,5.47L29.42,9.47C29.42,9.78 29.31,9.96 28.97,9.96C28.63,9.96 28.54,9.79 28.53,9.45L28.38,5.45L26.89,5.45L27.52,11L32.73,11Z" />
	<path fill="#565b73" fill-rule="nonzero" d="M22.98,10.95L22.98,11.02L24.72,11.02L24.72,10.95L24.4,6.65L25.91,6.73L25.8,5.47L21.88,5.47L21.77,6.73L23.3,6.65L22.98,10.95Z" />
	<path fill="#b5b7c1" fill-rule="nonzero" d="M54.94,7.56L53.58,8.93L61.85,8.93L63.21,7.56L54.94,7.56Z" />
	<path fill="#b5b7c1" fill-rule="nonzero" d="M16.07,7.56L17.44,8.93L9.17,8.93L7.8,7.56L16.07,7.56Z" />
</svg>

<svg id="Layer_1" data-name="Layer 1" xmlns="http://www.w3.org/2000/svg" viewBox="0 0 71.14 40.36">
	<polygon fill="currentColor" points="56.08 32.05 58.01 32.05 59.38 30.69 57.45 30.69 56.08 32.05" />
	<polygon fill="currentColor" points="51.47 34.78 53.4 34.78 54.76 33.41 52.83 33.41 51.47 34.78" />
	<path fill="currentColor" d="M62.49,25.23H43.24a9.18,9.18,0,0,1,.7,1.36H57.26L55.89,28H44.38a8.87,8.87,0,0,1,.2,1.37h6.54l-1.36,1.36H44.58a8.57,8.57,0,0,1-.2,1.36h5.93L49,33.42h-5a8.68,8.68,0,0,1-.69,1.36h6.26l1.37-1.36,1.36-1.37h1.91l1.36-1.36,1.36-1.36h3.44L61.68,28l1.37-1.37,1.36-1.36Zm-8.91,5.46H51.69l1.36-1.36h1.89ZM59.75,28H57.81l1.38-1.37h1.93Z" />
	<polygon fill="currentColor" points="11.81 30.69 13.18 32.05 15.11 32.05 13.74 30.69 11.81 30.69" />
	<polygon fill="currentColor" points="16.43 33.41 17.79 34.78 19.73 34.78 18.36 33.41 16.43 33.41" />
	<path fill="currentColor" d="M22.24,33.42l-1.36-1.37h5.93a8.57,8.57,0,0,1-.2-1.36H21.43l-1.36-1.36h6.54a8.87,8.87,0,0,1,.2-1.37H15.31l-1.38-1.37H27.25a9.18,9.18,0,0,1,.7-1.36H6.78l1.36,1.36L9.51,28l1.37,1.37h3.44l1.36,1.36L17,32.05H19l1.36,1.37,1.37,1.36h6.26a8.68,8.68,0,0,1-.69-1.36ZM11.44,28l-1.37-1.37H12L13.38,28Zm6.17,2.73-1.36-1.36h1.89l1.36,1.36Z" />
	<path id="bug" fill="currentColor" d="M35.6,23.45A6.56,6.56,0,1,0,42.15,30,6.55,6.55,0,0,0,35.6,23.45Zm0,11.36A4.81,4.81,0,1,1,40.4,30,4.79,4.79,0,0,1,35.6,34.81Zm3-6.42A1.36,1.36,0,1,1,37.21,27,1.36,1.36,0,0,1,38.57,28.39Zm0,3.23a1.36,1.36,0,1,1-1.36-1.35A1.37,1.37,0,0,1,38.57,31.62Zm-3.24,0A1.36,1.36,0,1,1,34,30.27,1.37,1.37,0,0,1,35.33,31.62Zm0-3.23A1.36,1.36,0,1,1,34,27,1.36,1.36,0,0,1,35.33,28.39Z" />
	<path fill="currentColor" d="M63.59,17.59a14.08,14.08,0,0,0-1.84-3.68h-2V14l.61,3.55v.08l-.61,3.85v.11h2V16.46a9.55,9.55,0,0,1,1.84,5.15h2V21.5L65,17.65v-.08L65.59,14v-.11h-2Z" />
	<path fill="currentColor" d="M51.73,14l.62,3.55v.08l-.62,3.85v.11h5.85V21.5L57,17.65v-.08L57.58,14v-.11H51.73Zm2.08,1.28h1.7v4.92h-1.7Z" />
	<polygon fill="currentColor" points="46.91 14.02 47.53 17.57 47.53 17.65 46.91 21.5 46.91 21.61 49.53 21.61 49.53 21.5 48.92 17.65 48.92 17.57 49.53 14.02 49.53 13.91 46.91 13.91 46.91 14.02" />
	<path fill="currentColor" d="M43,13.91H39.45V14l.61,3.55v.08l-.61,3.85v.11h2.61l-.48-3.3H43a2.18,2.18,0,0,0,2.19-2.2A2.09,2.09,0,0,0,43,13.91Zm-.62,3.17h-.14a.86.86,0,0,1-1-.86.84.84,0,0,1,1-.92h.14a.9.9,0,0,1,1,.92A.86.86,0,0,1,42.38,17.08Z" />
	<path fill="currentColor" d="M33.33,17a11.58,11.58,0,0,0-1.84-3.05h-2V14l.61,3.55v.08l-.61,3.85v.11h2V16.35a8.28,8.28,0,0,1,1.21,1.84l-.58,3.31v.11h2.42V21.5L34,18.19a7.93,7.93,0,0,1,1.21-1.84v5.26h2V21.5l-.62-3.85v-.08L37.18,14v-.11h-2A11.88,11.88,0,0,0,33.33,17Z" />
	<path fill="currentColor" d="M21.61,13.91V14l.61,3.55v.08l-.61,3.85v.11H23.5l.21-2.53h1.44l.2,2.53h1.9V21.5l-.62-3.85v-.08L27.25,14v-.11c-.92.07-1.88.11-2.82.11S22.54,14,21.61,13.91Zm3.54,2.83c0,.76-.31,1-.72,1s-.72-.25-.72-1V15.29h1.44Z" />
	<polygon fill="currentColor" points="17.34 15.3 17.34 17.07 15.65 17.07 15.65 15.3 15.65 13.91 13.56 13.91 13.56 14.02 14.18 17.57 14.18 17.65 13.56 21.5 13.56 21.61 15.65 21.61 15.65 20.22 15.65 18.45 17.34 18.45 17.34 20.22 17.34 21.61 19.41 21.61 19.41 21.5 18.8 17.65 18.8 17.57 19.41 14.02 19.41 13.91 17.34 13.91 17.34 15.3" />
	<polygon fill="currentColor" points="5.55 13.99 6.16 17.55 6.16 17.64 5.55 21.51 5.55 21.61 11.41 21.61 11.41 21.51 10.98 18.81 9.33 18.81 9.33 20.22 7.64 20.22 7.64 15.28 9.33 15.28 9.33 16.69 10.95 16.69 11.41 13.99 11.41 13.89 5.55 13.89 5.55 13.99" />
	<path fill="currentColor" d="M49.37,10.94l-.44-2.78V8.11l.44-2.56V5.47H45.16v.08l.44,2.56v.05l-.44,2.78V11h4.21ZM47.88,10H46.66V6.47h1.22Z" />
	<polygon fill="currentColor" points="44.07 10.95 43.63 8.16 43.63 8.11 44.07 5.55 44.07 5.47 42.19 5.47 42.19 5.55 42.63 8.11 42.63 8.16 42.19 10.95 42.19 11.02 44.07 11.02 44.07 10.95" />
	<polygon fill="currentColor" points="41.04 9.9 39.23 9.99 39.23 5.47 37.56 5.47 37.56 5.55 38.01 8.11 38.01 8.16 37.56 10.95 37.56 11.02 40.93 11.02 41.04 9.9" />
	<polygon fill="currentColor" points="34.44 5.55 34.88 8.11 34.88 8.16 34.44 10.95 34.44 11.02 36.33 11.02 36.33 10.95 35.88 8.16 35.88 8.11 36.33 5.55 36.33 5.47 34.44 5.47 34.44 5.55" />
	<path fill="currentColor" d="M32.73,11l.64-5.55h-1.5l-.15,4c0,.34-.08.51-.43.51s-.44-.18-.45-.49l-.15-4H29.57l-.15,4c0,.31-.11.49-.45.49s-.43-.17-.44-.51l-.15-4H26.89L27.52,11Z" />
	<polygon fill="currentColor" points="22.98 10.95 22.98 11.02 24.72 11.02 24.72 10.95 24.4 6.65 25.91 6.73 25.8 5.47 21.88 5.47 21.77 6.73 23.3 6.65 22.98 10.95" />
	<polygon fill="currentColor" points="54.94 7.56 53.58 8.93 61.85 8.93 63.21 7.56 54.94 7.56" />
	<polygon fill="currentColor" points="16.07 7.56 17.44 8.93 9.17 8.93 7.8 7.56 16.07 7.56" />
</svg>
